X:1
T:Enfans à l'aborder
T:Jean de Castro
T:Source : La fleur des chansons à 3---Louvain---P.Phalèse---1574. Editor : André Vierendeels (20/08/18) Notes : Original clefs : G2, C2, C3 Original note values have been halved Editorial accidentals above the staff
T:Enfans à l'aborder
T:©
T:©
T:©
T:©
C:Jean de Castro
Z:©
%%score [ 1 2 3 ]
L:1/8
Q:1/4=85
M:2/2
K:F
V:1 treble nm="Soprano 1" snm="S 1"
V:2 treble nm="Soprano 2" snm="S 2"
V:3 treble-8 nm="Tenor" snm="T"
V:1
 G2 Bc dddd | f3 e d2 c2 | dG=B>c dd d2 | z2 f2 e2 d2 | cBBA/G/ A2 A2 | B4 z2 d2 | dddd c2 z c | %7
w: En- fans, à l'a- bor- der, al-|lu- mons ces fa-|gots, al- lu- mons ces fa- gots,|al- lu- mons|ces- * * * * * fa-|gots, et|puis com- me fre- rots, et|
 cccc B4 | z2 B2 BAGF | G2 d2 dddd | c3 c cBAA |[M:3/4] B4 B2 | A4 A2 | A4 G2 | A2 F2 G2 | %15
w: puis com- me fre- rots,|bou- tons les mains au|dos, et puis com- me fre-|rots, bou- tons les mains au|das, ne|fai- sons|point la|gru- e, la|
 A2 F2 G2 | A2 F2 f2 | e4 d2 | d4 c2 | d4 f2 | e4 d2 |"^#" d4 c2 |[M:2/2] d2 z d dddd | c4 c2 d2 | %24
w: gru- e, la|gru- e, beu-|vons des|de- my|lots, beu-|vons des|de- my|lots,, tel- le n'en boit, n'en|men- ge, qui|
 c3 B A2 A2 | =B2 z d dddd | c2 cB A2 G2 | G2 F2 Gd B2 | Gg e2 c c2 c | =B8 |] %30
w: pay- ra nos es-|cots, tel- le n'en boit, n'en|men- ge, qui pay- ra|nos es- cots, qui pay-|ra, qui pay- ra nos es-|cots?|
V:2
 z4 D2 FG | AAAA B2 G2 | B>A G2 z DFG | AAAA c2 B2 | AG G4 F2 | G2 B2 BBBB | A2 z A AAAA | %7
w: En- fans, à|l'a- bor- der, al- lu- mons|ces fa- gots, al- lu- mons|ces fa- gots, al- lu- mons|ces _ _ fa-|gots, et puis com- me fre-|rots, et puis com- me fre-|
 G2 z G GGGG | F3 G FEDC | D2 B2 BBBB | A2 G2 AGGF |[M:3/4]"^#" G4 G2 | F4 E2 | F4 D2 | F4 D2 | %15
w: rots, et puis com- me fre-|rots, bou- tons les mains au|dos, et puis com- me fre-|rots, bou- tons les mains au|dos, ne|fai- sons|point la|gru- e,|
 E2 F2 D2 | E2 F2 D2 | E2 E2 F2 | G2 E4 | F4 B2 | G4 F2 | G2 E4 |[M:2/2] F2 z B BBBB | A4 A2 B2 | %24
w: la gru- e,|la gru- e,|beu- vons des|de- my|lots, beu-|vons des|de- my|lots, tel- le n'en boit, n'en|men- ge, qui|
 A2 G2 G2 F2 |"^b" G2 B2 BBBB | A2 Ad c2 B2 | A2 A2 G4- | G8- | G8 |] %30
w: pay- ra nos es-|cots, tel- le n'en boit, n'en|men- ge, qui pay- ra|nos es- cots?|_||
V:3
 z2 G2 Bcdd | ddff g2 c2 | g2 z G B>cdd | d2 d2 c2 G2 | c2 _e2 d4 |"^#" z2 g2 gggg | f2 z f ffff | %7
w: En- fans, à l'a- bor-|der, al- lu- mons ces fa-|gots, al- lu- mons ces fa-|gots, al- lu- mons|ces fa- gots,|et puis com- me fre-|rots, et puis com- me fre-|
 c2 z c _eeee | B3 G dcBA | G2 z G gggg | c3 c fBcd |[M:3/4] G4 G2 | d4 ^c2 | d4 G2 | d4 B2 | %15
w: rots, et puis com- me fre-|rots, bou- tons les mains au|dos, et puis com- me fre-|rots, bou- tons les mains au|dos, ne|fai- sons|point la|gru- e,|
 c2 d2 B2 | c2 d2 B2 | c2 c2 d2 | G2 A4 | d4 B2 | c4 d2 | G2 A4 |[M:2/2] d2 B2 BBBB | f4 F2 B2 | %24
w: la gru- e,|la gru- e,|beu- vons des|de- my|lots, beu-|vons des|de- my|lots, tel- le n'en boit, n'en|men- ge, qui|
 f2 c2 d2 d2 | G2 G2 GGgd | f2 fB c2 G2 | d2 d2 G2 z g | _e2 c2 c3 c | G8 |] %30
w: pay- ra nos es-|cots, tel- le n'en boit, n'en|men- ge, qui pay- ra|nos es- cots, qui|pay- ra nos es-|cots?|

